static/assets/template/assets/img/icons/essential/detailed/Energy_Bar.svg

<svg height="136" viewBox="0 0 152 136" width="152" xmlns="http://www.w3.org/2000/svg"><g fill="none" fill-rule="evenodd" transform="translate(2)"><g stroke-linecap="round" stroke-linejoin="round" stroke-width="3" transform="translate(2 132)"><path d="m1.7.2h-1.4"/><path d="m40 .2h-32.9"/><path d="m47.1.2h-1.2"/><path d="m133.1.2h-78.7"/><path d="m139.4.2h-2"/><path d="m145.7.2h-.4"/></g><path d="m146.7 44.3c-.2.7-.6 1.3-1.2 1.8l-11.5 7.7-1.6 1.1-64 64-1.2 1.7-8.4 12.2c-.4.6-1.1 1-1.8 1.2-.5.1-1.1.1-1.6 0l-3.1-.3c-1-.3-1.8-1-2.2-2l-.9-4c-.3-.8-.9-1.5-1.8-1.8l-4.5-1.3c-.9-.4-1.6-1.2-1.9-2.2l-.4-3.5c-.3-1.1-1.1-2-2.2-2.3l-3.8-.6c-1-.3-1.8-1.1-2.2-2.1l-.7-4.1c-.3-1-1-1.7-1.9-2.1l-4-.9c-.9-.3-1.5-1-1.9-1.9l-.9-4c-.3-.9-1.1-1.6-2.1-1.9l-3.9-.6c-1.1-.3-1.9-1.2-2.2-2.3l-.3-3.8c-.1-.3-.1-.6-.1-.9.1-.9.5-1.8 1.3-2.3l13.6-9.2 2.7-2.7 12.6-12.6 48.7-48.7 8.4-12.8c.7-1 2-1.5 3.3-1.3l3.8.3c1.1.2 2 1.1 2.3 2.2l.6 3.9c.3 1 1 1.7 1.9 2.1l4 1c.9.3 1.5 1 1.9 1.9l1 4c.4.9 1.1 1.6 2.1 1.9l4.1.7c1 .3 1.8 1.1 2.1 2.1l.6 3.8c.3 1.1 1.2 1.9 2.3 2.2l3.5.4c1 .2 1.8.9 2.2 1.9l1.3 4.5c.3.8 1 1.5 1.8 1.8l4 .9c1 .4 1.7 1.2 2 2.2l.3 3.1c0 .2.1.3.1.5 0 .4-.1.8-.2 1.1z" fill-rule="nonzero"/><path d="m146.8 43.2c0 .5-.2.9-.4 1.3s-.5.7-.9 1l-6.6 4.4-6.5 4.4-64 64-3.6 5.2-6 8.7c-.3.4-.7.8-1.2 1-.7.3-1.4.4-2.2.2l-3.1-.3c-1-.3-1.8-1-2.2-2l-.9-4c-.3-.8-.9-1.5-1.8-1.8l-4.5-1.3c-.9-.4-1.6-1.2-1.9-2.2l-.4-3.5c-.3-1.1-1.1-2-2.2-2.3l-3.8-.6c-1-.3-1.8-1.1-2.2-2.1l-.7-4.1c-.3-1-1-1.7-1.9-2.1l-4-1c-.9-.3-1.5-1-1.9-1.9l-.9-4c-.3-.9-1.1-1.6-2.1-1.9l-3.5-.6-.4-.1c-1.1-.3-1.9-1.2-2.2-2.4l-.3-3.8c0-.1 0-.3-.1-.4-.1-1.1.4-2.2 1.3-2.9l13.6-9.2 2.7-2.7 12.6-12.6 48.7-48.7 8.4-12.8c.7-1 2-1.5 3.3-1.3l3.8.3c1.1.3 2 1.1 2.3 2.2l.1.5.6 3.5c.3 1 1 1.7 1.9 2.1l4 1c.9.3 1.5 1 1.9 1.9l1 4c.4.9 1.1 1.6 2.1 1.9l4.1.7c1 .3 1.8 1.1 2.1 2.1l.6 3.8c.3 1.1 1.2 1.9 2.3 2.2l3.5.4c1 .2 1.8.9 2.2 1.9l1.3 4.5c.3.8 1 1.5 1.8 1.8l4 .9c1 .4 1.7 1.2 2 2.2l.3 3.1c-.1.8 0 1.1-.1 1.4z" fill-rule="nonzero"/><path d="m142.8 47.2c0 .4 0 .7-.1 1.1l-.3.2-7.5 5.4-3.8 2.8-1.1 1.1-62.8 62.8-.9.9-1.4 2-7.2 9.7-.6.8c-.5.1-1.1.1-1.6 0l-3.1-.3c-1-.3-1.8-1-2.2-2l-.9-4c-.3-.8-.9-1.5-1.8-1.8l-4.5-1.3c-.1 0-.2-.1-.3-.1-.8-.4-1.4-1.1-1.6-2l-.4-3.5c-.3-1.1-1.1-2-2.2-2.3l-3.8-.6c-1-.3-1.8-1.1-2.2-2.1l-.7-4.1c-.3-1-1-1.7-1.9-2.1l-4-.9c-.4-.2-.8-.4-1.1-.7s-.6-.7-.8-1.1l-.9-4c0-.1-.1-.2-.1-.3-.4-.8-1.1-1.4-1.9-1.6l-3.9-.6c.1-.2.3-.3.4-.5.1-.1.2-.2.3-.3l14.2-10.4 2.9-2.9 13.6-13.6 48.4-48.4c4.3-6 6.7-9.4 8.1-11.4.8-1.1 2.6-.7 2.8.7.3 1 1 1.7 1.9 2.1l4 1c.4.1.7.3 1 .6.4.3.7.8.9 1.3l.9 3.8v.2c.4.9 1.1 1.6 2.1 1.9l4.1.7c.7.2 1.3.6 1.7 1.2.2.3.4.6.5.9l.6 3.8c.1.2.2.5.3.7.4.7 1.1 1.3 2 1.5l3.5.4c.7.2 1.3.6 1.7 1.1.2.2.3.5.5.8l1.3 4.4c.3.8 1 1.5 1.8 1.8l4 .9c.2.1.4.2.6.3.4.2.7.5.9.9.2.3.4.6.5 1l.1 1.4v.1l.1 1.7c0 .1.1.2.1.3-.1.2-.1.4-.2.6z" fill-rule="nonzero"/><g stroke-width="3" transform="translate(60 53)"><path d="m2.2 29.8 35.8-5.6c1.1-.2 1.5-1.5.7-2.3l-8-7.7 15.3-11.2c1.1-.8.4-2.5-1-2.3l-35.8 5.7c-1.1.2-1.5 1.5-.7 2.3l7.8 7.7-15.1 11.3c-1.1.5-.4 2.3 1 2.1z" fill-rule="nonzero"/><g stroke-linecap="round" stroke-linejoin="round"><path d="m25.5 3.6-.5.1"/><path d="m28.4 15.8 17.6-12.9c1.1-.8.4-2.5-1-2.3l-11 1.7"/><path d="m18.8 4.7-9.5 1.5c-1.1.2-1.5 1.5-.7 2.3l7.8 7.7-15.1 11.3c-1.1.8-.4 2.5 1 2.3l35.8-5.6c1.1-.2 1.5-1.5.7-2.3l-4.1-4"/></g></g><path d="m142.8 47.2c0 .4 0 .7-.1 1.1l-.3.2-7.5 5.4-3.8 2.8-1.1 1.1-62.8 62.8-.9.9-1.4 2-7.2 9.7-.6.8c-.5.1-1.1.1-1.6 0l-3.1-.3c-1-.3-1.8-1-2.2-2l-.9-4c-.3-.8-.9-1.5-1.8-1.8l-4.5-1.3c-.1 0-.2-.1-.3-.1.9-1 1.8-2 2.8-2.8 6.8-5.7 9.1-20.5 35.8-28.4 26.7-8 18.8-18.2 30.7-35.3s15.4-6.8 29.6-13.1l1-.5v.1l.1 1.7c0 .1.1.2.1.3.1.3.1.5 0 .7z" fill="#bad8ff" fill-rule="nonzero"/><path d="m30 97.4c-1.5 2.6-3.5 6-5.2 8.8-.3-.3-.6-.7-.8-1.1l-.9-4c0-.1-.1-.2-.1-.3l5.7-4.5c.8-.7 1.8.2 1.3 1.1z" fill="#bad8ff" fill-rule="nonzero"/><path d="m38.5 105.3c-1.5 2.6-3.5 6-5.2 8.8-.3-.3-.6-.7-.8-1.1l-1-4c0-.1-.1-.2-.1-.3l5.7-4.5c.9-.6 1.9.3 1.4 1.1z" fill="#bad8ff" fill-rule="nonzero"/><path d="m46.5 114.4c-1.5 2.6-3.5 6-5.2 8.8-.3-.3-.6-.7-.8-1.1l-1-4c0-.1-.1-.2-.1-.3l5.7-4.5c.9-.6 1.9.3 1.4 1.1z" fill="#bad8ff" fill-rule="nonzero"/><path d="m56.2 123.5c-1.5 2.6-3.5 6-5.2 8.8-.3-.3-.6-.7-.8-1.1l-1-4c0-.1-.1-.2-.1-.3l5.7-4.5c.8-.6 1.9.3 1.4 1.1z" fill="#bad8ff" fill-rule="nonzero"/><path d="m143.1 46.3-.3.2-5.5 4.3c-.8.6-1.8-.3-1.3-1.1 1.5-2.5 3.4-5.7 5-8.6.4.2.7.5.9.9l.6 2.5.4 1.5c.1.1.1.2.2.3z" fill="#bad8ff" fill-rule="nonzero"/><path d="m134.7 38.1-5.3 4.2c-.8.6-1.8-.3-1.3-1.1 1.4-2.4 3.3-5.5 4.9-8.3.2.2.3.5.5.8z" fill="#bad8ff" fill-rule="nonzero"/><path d="m125.8 29.9-4.9 3.9c-.8.6-1.8-.3-1.3-1.1 1.4-2.4 3.2-5.5 4.8-8.2.2.3.4.6.5.9l.6 3.8c0 .3.1.5.3.7z" fill="#bad8ff" fill-rule="nonzero"/><path d="m116.5 20.4-5.3 4.2c-.8.6-1.8-.3-1.3-1.1 1.4-2.4 3.2-5.5 4.8-8.2.4.3.7.8.9 1.3z" fill="#bad8ff" fill-rule="nonzero"/><g stroke-linecap="round" stroke-linejoin="round" stroke-width="3"><path d="m59.2 50 34.1-34.1 8.4-12.8c.7-1 2-1.5 3.3-1.3l3.8.3c1.1.2 2 1.1 2.3 2.2l.6 3.9c.3 1 1 1.7 1.9 2.1l4 1c.9.3 1.5 1 1.9 1.9l1 4c.4.9 1.1 1.6 2.1 1.9l4.1.7c1 .3 1.8 1.1 2.1 2.1l.6 3.8c.3 1.1 1.2 1.9 2.3 2.2l3.5.4c1 .2 1.8.9 2.2 1.9l1.3 4.5c.3.8 1 1.5 1.8 1.8l4 .9c1 .4 1.7 1.2 2 2.2l.3 3.1c0 .2.1.3.1.5 0 .4 0 .7-.1 1.1-.2.7-.6 1.3-1.2 1.8l-11.5 7.7-1.6 1.1-64 64-1.2 1.7-8.4 12.2c-.4.6-1.1 1-1.8 1.2-.5.1-1.1.1-1.6 0l-3.1-.3c-1-.3-1.8-1-2.2-2l-.9-4c-.3-.8-.9-1.5-1.8-1.8l-4.5-1.3c-.9-.4-1.6-1.2-1.9-2.2l-.4-3.5c-.3-1.1-1.1-2-2.2-2.3l-3.8-.6c-1-.3-1.8-1.1-2.2-2.1l-.7-4.1c-.3-1-1-1.7-1.9-2.1l-4-1c-.9-.3-1.5-1-1.9-1.9l-1-4c-.3-.9-1.1-1.6-2.1-1.9l-3.9-.6c-1.1-.3-1.9-1.2-2.2-2.3l-.3-3.8c-.1-.3-.1-.6-.1-.9.1-.9.5-1.8 1.3-2.3l13.6-9.2 2.7-2.7"/><path d="m36.5 72.7.2-.1"/><path d="m112 34.5 20.4 20.4"/><path d="m103.1 25.5 3.2 3.2"/><path d="m98.7 21.2.3.3"/><path d="m29 80.2 39.1 39"/><path d="m55.3 2.1h-15.1"/><path d="m85.1 2.1h-21.3"/><path d="m31.6 10.3h-6.8"/><path d="m76.6 10.3h-36.5"/><path d="m5 58.1h-4.9"/><path d="m33.5 58.1h-22.5"/></g></g></svg>

<?xml version="1.0" encoding="UTF-8"?>
<svg width="152px" height="136px" viewBox="0 0 152 136" version="1.1" xmlns="http://www.w3.org/2000/svg" xmlns:xlink="http://www.w3.org/1999/xlink">
    <!-- Generator: Sketch 51.2 (57519) - http://www.bohemiancoding.com/sketch -->
    <title>Energy_Bar</title>
    <desc>Created with Sketch.</desc>
    <defs></defs>
    <g id="Page-1" stroke="none" stroke-width="1" fill="none" fill-rule="evenodd">
        <g id="Energy_Bar" transform="translate(2.000000, 0.000000)">
            <g id="Group" transform="translate(2.000000, 132.000000)" class="stroke-primary-300" stroke-linecap="round" stroke-linejoin="round" stroke-width="3">
                <path d="M1.7,0.2 L0.3,0.2" id="Shape"></path>
                <path d="M40,0.2 L7.1,0.2" id="Shape"></path>
                <path d="M47.1,0.2 L45.9,0.2" id="Shape"></path>
                <path d="M133.1,0.2 L54.4,0.2" id="Shape"></path>
                <path d="M139.4,0.2 L137.4,0.2" id="Shape"></path>
                <path d="M145.7,0.2 L145.3,0.2" id="Shape"></path>
            </g>
            <path d="M146.7,44.3 C146.5,45 146.1,45.6 145.5,46.1 L134,53.8 L132.4,54.9 L68.4,118.9 L67.2,120.6 L58.8,132.8 C58.4,133.4 57.7,133.8 57,134 C56.5,134.1 55.9,134.1 55.4,134 L52.3,133.7 C51.3,133.4 50.5,132.7 50.1,131.7 L49.2,127.7 C48.9,126.9 48.3,126.2 47.4,125.9 L42.9,124.6 C42,124.2 41.3,123.4 41,122.4 L40.6,118.9 C40.3,117.8 39.5,116.9 38.4,116.6 L34.6,116 C33.6,115.7 32.8,114.9 32.4,113.9 L31.7,109.8 C31.4,108.8 30.7,108.1 29.8,107.7 L25.8,106.8 C24.9,106.5 24.3,105.8 23.9,104.9 L23,100.9 C22.7,100 21.9,99.3 20.9,99 L17,98.4 C17,98.4 17,98.4 17,98.4 C15.9,98.1 15.1,97.2 14.8,96.1 L14.5,92.3 C14.4,92 14.4,91.7 14.4,91.4 C14.5,90.5 14.9,89.6 15.7,89.1 L29.3,79.9 L32,77.2 L44.6,64.6 L93.3,15.9 L101.7,3.1 C102.4,2.1 103.7,1.6 105,1.8 L108.8,2.1 C109.9,2.3 110.8,3.2 111.1,4.3 C111.1,4.3 111.1,4.3 111.1,4.3 L111.7,8.2 C112,9.2 112.7,9.9 113.6,10.3 L117.6,11.3 C118.5,11.6 119.1,12.3 119.5,13.2 L120.5,17.2 C120.9,18.1 121.6,18.8 122.6,19.1 L126.7,19.8 C127.7,20.1 128.5,20.9 128.8,21.9 L129.4,25.7 C129.7,26.8 130.6,27.6 131.7,27.9 L135.2,28.3 C136.2,28.5 137,29.2 137.4,30.2 L138.7,34.7 C139,35.5 139.7,36.2 140.5,36.5 L144.5,37.4 C145.5,37.8 146.2,38.6 146.5,39.6 L146.8,42.7 C146.8,42.9 146.9,43 146.9,43.2 C146.9,43.6 146.8,44 146.7,44.3 Z" id="Shape" class="fill-neutral" fill-rule="nonzero"></path>
            <path d="M146.8,43.2 C146.8,43.7 146.6,44.1 146.4,44.5 C146.2,44.9 145.9,45.2 145.5,45.5 L138.9,49.9 L132.4,54.3 L68.4,118.3 L64.8,123.5 L58.8,132.2 C58.5,132.6 58.1,133 57.6,133.2 C56.9,133.5 56.2,133.6 55.4,133.4 L52.3,133.1 C51.3,132.8 50.5,132.1 50.1,131.1 L49.2,127.1 C48.9,126.3 48.3,125.6 47.4,125.3 L42.9,124 C42,123.6 41.3,122.8 41,121.8 L40.6,118.3 C40.3,117.2 39.5,116.3 38.4,116 L34.6,115.4 C33.6,115.1 32.8,114.3 32.4,113.3 L31.7,109.2 C31.4,108.2 30.7,107.5 29.8,107.1 L25.8,106.1 C24.9,105.8 24.3,105.1 23.9,104.2 L23,100.2 C22.7,99.3 21.9,98.6 20.9,98.3 L17.4,97.7 L17,97.6 C15.9,97.3 15.1,96.4 14.8,95.2 L14.5,91.4 C14.5,91.3 14.5,91.1 14.4,91 C14.3,89.9 14.8,88.8 15.7,88.1 L29.3,78.9 L32,76.2 L44.6,63.6 L93.3,14.9 L101.7,2.1 C102.4,1.1 103.7,0.6 105,0.8 L108.8,1.1 C109.9,1.4 110.8,2.2 111.1,3.3 L111.2,3.8 L111.8,7.3 C112.1,8.3 112.8,9 113.7,9.4 L117.7,10.4 C118.6,10.7 119.2,11.4 119.6,12.3 L120.6,16.3 C121,17.2 121.7,17.9 122.7,18.2 L126.8,18.9 C127.8,19.2 128.6,20 128.9,21 L129.5,24.8 C129.8,25.9 130.7,26.7 131.8,27 L135.3,27.4 C136.3,27.6 137.1,28.3 137.5,29.3 L138.8,33.8 C139.1,34.6 139.8,35.3 140.6,35.6 L144.6,36.5 C145.6,36.9 146.3,37.7 146.6,38.7 L146.9,41.8 C146.8,42.6 146.9,42.9 146.8,43.2 Z" id="Shape" class="fill-neutral" fill-rule="nonzero"></path>
            <path d="M142.8,47.2 C142.8,47.6 142.8,47.9 142.7,48.3 L142.4,48.5 L134.9,53.9 L131.1,56.7 L130,57.8 L67.2,120.6 L66.3,121.5 L64.9,123.5 L57.7,133.2 L57.1,134 C56.6,134.1 56,134.1 55.5,134 L52.4,133.7 C51.4,133.4 50.6,132.7 50.2,131.7 L49.3,127.7 C49,126.9 48.4,126.2 47.5,125.9 L43,124.6 C42.9,124.6 42.8,124.5 42.7,124.5 C41.9,124.1 41.3,123.4 41.1,122.5 L40.7,119 C40.4,117.9 39.6,117 38.5,116.7 L34.7,116.1 C33.7,115.8 32.9,115 32.5,114 L31.8,109.9 C31.5,108.9 30.8,108.2 29.9,107.8 L25.9,106.9 C25.5,106.7 25.1,106.5 24.8,106.2 C24.5,105.9 24.2,105.5 24,105.1 L23.1,101.1 C23.1,101 23,100.9 23,100.8 C22.6,100 21.9,99.4 21.1,99.2 L17.2,98.6 C17.2,98.6 17.2,98.6 17.2,98.6 C17.3,98.4 17.5,98.3 17.6,98.1 C17.7,98 17.8,97.9 17.9,97.8 L32.1,87.4 L35,84.5 L48.6,70.9 L97,22.5 C101.3,16.5 103.7,13.1 105.1,11.1 C105.9,10 107.7,10.4 107.9,11.8 C108.2,12.8 108.9,13.5 109.8,13.9 L113.8,14.9 C114.2,15 114.5,15.2 114.8,15.5 C115.2,15.8 115.5,16.3 115.7,16.8 L116.6,20.6 L116.6,20.8 C117,21.7 117.7,22.4 118.7,22.7 L122.8,23.4 C123.5,23.6 124.1,24 124.5,24.6 C124.7,24.9 124.9,25.2 125,25.5 L125.6,29.3 C125.7,29.5 125.8,29.8 125.9,30 C126.3,30.7 127,31.3 127.9,31.5 L131.4,31.9 C132.1,32.1 132.7,32.5 133.1,33 C133.3,33.2 133.4,33.5 133.6,33.8 L134.9,38.2 C135.2,39 135.9,39.7 136.7,40 L140.7,40.9 C140.9,41 141.1,41.1 141.3,41.2 C141.7,41.4 142,41.7 142.2,42.1 C142.4,42.4 142.6,42.7 142.7,43.1 L142.8,44.5 L142.8,44.6 L142.9,46.3 C142.9,46.4 143,46.5 143,46.6 C142.9,46.8 142.9,47 142.8,47.2 Z" id="Shape" class="fill-primary-100" fill-rule="nonzero"></path>
            <g id="Group" transform="translate(60.000000, 53.000000)" stroke-width="3">
                <path d="M2.2,29.8 L38,24.2 C39.1,24 39.5,22.7 38.7,21.9 L30.7,14.2 L46,3 C47.1,2.2 46.4,0.5 45,0.7 L9.2,6.4 C8.1,6.6 7.7,7.9 8.5,8.7 L16.3,16.4 L1.2,27.7 C0.1,28.2 0.8,30 2.2,29.8 Z" id="Shape" class="stroke-primary-400" class="fill-primary-400" fill-rule="nonzero"></path>
                <path d="M25.5,3.6 L25,3.7" id="Shape" class="stroke-primary" stroke-linecap="round" stroke-linejoin="round"></path>
                <path d="M28.4,15.8 L46,2.9 C47.1,2.1 46.4,0.4 45,0.6 L34,2.3" id="Shape" class="stroke-primary" stroke-linecap="round" stroke-linejoin="round"></path>
                <path d="M18.8,4.7 L9.3,6.2 C8.2,6.4 7.8,7.7 8.6,8.5 L16.4,16.2 L1.3,27.5 C0.2,28.3 0.9,30 2.3,29.8 L38.1,24.2 C39.2,24 39.6,22.7 38.8,21.9 L34.7,17.9" id="Shape" class="stroke-primary" stroke-linecap="round" stroke-linejoin="round"></path>
            </g>
            <path d="M142.8,47.2 C142.8,47.6 142.8,47.9 142.7,48.3 L142.4,48.5 L134.9,53.9 L131.1,56.7 L130,57.8 L67.2,120.6 L66.3,121.5 L64.9,123.5 L57.7,133.2 L57.1,134 C56.6,134.1 56,134.1 55.5,134 L52.4,133.7 C51.4,133.4 50.6,132.7 50.2,131.7 L49.3,127.7 C49,126.9 48.4,126.2 47.5,125.9 L43,124.6 C42.9,124.6 42.8,124.5 42.7,124.5 C43.6,123.5 44.5,122.5 45.5,121.7 C52.3,116 54.6,101.2 81.3,93.3 C108,85.3 100.1,75.1 112,58 C123.9,40.9 127.4,51.2 141.6,44.9 L142.6,44.4 L142.6,44.5 L142.7,46.2 C142.7,46.3 142.8,46.4 142.8,46.5 C142.9,46.8 142.9,47 142.8,47.2 Z" id="Shape" fill="#BAD8FF" fill-rule="nonzero"></path>
            <path d="M30,97.4 C28.5,100 26.5,103.4 24.8,106.2 C24.5,105.9 24.2,105.5 24,105.1 L23.1,101.1 C23.1,101 23,100.9 23,100.8 L28.7,96.3 C29.5,95.6 30.5,96.5 30,97.4 Z" id="Shape" fill="#BAD8FF" fill-rule="nonzero"></path>
            <path d="M38.5,105.3 C37,107.9 35,111.3 33.3,114.1 C33,113.8 32.7,113.4 32.5,113 L31.5,109 C31.5,108.9 31.4,108.8 31.4,108.7 L37.1,104.2 C38,103.6 39,104.5 38.5,105.3 Z" id="Shape" fill="#BAD8FF" fill-rule="nonzero"></path>
            <path d="M46.5,114.4 C45,117 43,120.4 41.3,123.2 C41,122.9 40.7,122.5 40.5,122.1 L39.5,118.1 C39.5,118 39.4,117.9 39.4,117.8 L45.1,113.3 C46,112.7 47,113.6 46.5,114.4 Z" id="Shape" fill="#BAD8FF" fill-rule="nonzero"></path>
            <path d="M56.2,123.5 C54.7,126.1 52.7,129.5 51,132.3 C50.7,132 50.4,131.6 50.2,131.2 L49.2,127.2 C49.2,127.1 49.1,127 49.1,126.9 L54.8,122.4 C55.6,121.8 56.7,122.7 56.2,123.5 Z" id="Shape" fill="#BAD8FF" fill-rule="nonzero"></path>
            <path d="M143.1,46.3 L142.8,46.5 L137.3,50.8 C136.5,51.4 135.5,50.5 136,49.7 C137.5,47.2 139.4,44 141,41.1 C141.4,41.3 141.7,41.6 141.9,42 L142.5,44.5 L142.9,46 C143,46.1 143,46.2 143.1,46.3 Z" id="Shape" fill="#BAD8FF" fill-rule="nonzero"></path>
            <path d="M134.7,38.1 L129.4,42.3 C128.6,42.9 127.6,42 128.1,41.2 C129.5,38.8 131.4,35.7 133,32.9 C133.2,33.1 133.3,33.4 133.5,33.7 L134.7,38.1 Z" id="Shape" fill="#BAD8FF" fill-rule="nonzero"></path>
            <path d="M125.8,29.9 L120.9,33.8 C120.1,34.4 119.1,33.5 119.6,32.7 C121,30.3 122.8,27.2 124.4,24.5 C124.6,24.8 124.8,25.1 124.9,25.4 L125.5,29.2 C125.5,29.5 125.6,29.7 125.8,29.9 Z" id="Shape" fill="#BAD8FF" fill-rule="nonzero"></path>
            <path d="M116.5,20.4 L111.2,24.6 C110.4,25.2 109.4,24.3 109.9,23.5 C111.3,21.1 113.1,18 114.7,15.3 C115.1,15.6 115.4,16.1 115.6,16.6 L116.5,20.4 Z" id="Shape" fill="#BAD8FF" fill-rule="nonzero"></path>
            <path d="M59.2,50 L93.3,15.9 L101.7,3.1 C102.4,2.1 103.7,1.6 105,1.8 L108.8,2.1 C109.9,2.3 110.8,3.2 111.1,4.3 C111.1,4.3 111.1,4.3 111.1,4.3 L111.7,8.2 C112,9.2 112.7,9.9 113.6,10.3 L117.6,11.3 C118.5,11.6 119.1,12.3 119.5,13.2 L120.5,17.2 C120.9,18.1 121.6,18.8 122.6,19.1 L126.7,19.8 C127.7,20.1 128.5,20.9 128.8,21.9 L129.4,25.7 C129.7,26.8 130.6,27.6 131.7,27.9 L135.2,28.3 C136.2,28.5 137,29.2 137.4,30.2 L138.7,34.7 C139,35.5 139.7,36.2 140.5,36.5 L144.5,37.4 C145.5,37.8 146.2,38.6 146.5,39.6 L146.8,42.7 C146.8,42.9 146.9,43 146.9,43.2 C146.9,43.6 146.9,43.9 146.8,44.3 C146.6,45 146.2,45.6 145.6,46.1 L134.1,53.8 L132.5,54.9 L68.5,118.9 L67.3,120.6 L58.9,132.8 C58.5,133.4 57.8,133.8 57.1,134 C56.6,134.1 56,134.1 55.5,134 L52.4,133.7 C51.4,133.4 50.6,132.7 50.2,131.7 L49.3,127.7 C49,126.9 48.4,126.2 47.5,125.9 L43,124.6 C42.1,124.2 41.4,123.4 41.1,122.4 L40.7,118.9 C40.4,117.8 39.6,116.9 38.5,116.6 L34.7,116 C33.7,115.7 32.9,114.9 32.5,113.9 L31.8,109.8 C31.5,108.8 30.8,108.1 29.9,107.7 L25.9,106.7 C25,106.4 24.4,105.7 24,104.8 L23,100.8 C22.7,99.9 21.9,99.2 20.9,98.9 L17,98.3 C17,98.3 17,98.3 17,98.3 C15.9,98 15.1,97.1 14.8,96 L14.5,92.2 C14.4,91.9 14.4,91.6 14.4,91.3 C14.5,90.4 14.9,89.5 15.7,89 L29.3,79.8 L32,77.1" id="Shape" class="stroke-primary" stroke-width="3" stroke-linecap="round" stroke-linejoin="round"></path>
            <path d="M36.5,72.7 L36.7,72.6" id="Shape" class="stroke-primary" stroke-width="3" stroke-linecap="round" stroke-linejoin="round"></path>
            <path d="M112,34.5 L132.4,54.9" id="Shape" class="stroke-primary" stroke-width="3" stroke-linecap="round" stroke-linejoin="round"></path>
            <path d="M103.1,25.5 L106.3,28.7" id="Shape" class="stroke-primary" stroke-width="3" stroke-linecap="round" stroke-linejoin="round"></path>
            <path d="M98.7,21.2 L99,21.5" id="Shape" class="stroke-primary" stroke-width="3" stroke-linecap="round" stroke-linejoin="round"></path>
            <path d="M29,80.2 L68.1,119.2" id="Shape" class="stroke-primary" stroke-width="3" stroke-linecap="round" stroke-linejoin="round"></path>
            <path d="M55.3,2.1 L40.2,2.1" id="Shape" class="stroke-primary-300" stroke-width="3" stroke-linecap="round" stroke-linejoin="round"></path>
            <path d="M85.1,2.1 L63.8,2.1" id="Shape" class="stroke-primary-300" stroke-width="3" stroke-linecap="round" stroke-linejoin="round"></path>
            <path d="M31.6,10.3 L24.8,10.3" id="Shape" class="stroke-primary-300" stroke-width="3" stroke-linecap="round" stroke-linejoin="round"></path>
            <path d="M76.6,10.3 L40.1,10.3" id="Shape" class="stroke-primary-300" stroke-width="3" stroke-linecap="round" stroke-linejoin="round"></path>
            <path d="M5,58.1 L0.1,58.1" id="Shape" class="stroke-primary-300" stroke-width="3" stroke-linecap="round" stroke-linejoin="round"></path>
            <path d="M33.5,58.1 L11,58.1" id="Shape" class="stroke-primary-300" stroke-width="3" stroke-linecap="round" stroke-linejoin="round"></path>
        </g>
    </g>
</svg>
